X: 3
T: Seanamhac Tube Station
R: jig
M: 6/8
L: 1/8
K: Gdor
GFD D2 F|GAc ~d3|dcA cAF|GFD CDF|~G3 GFD|GAc dce|dce dcA|~G3 G2 A|GFD D2 F|GAc [d3D3]|dcA ABc|AFD CDF|~G3 GFD|GAc dce|dce dcA|~G3 GAc||ded dcA|~c3 A2 c|dcA cAF|GFD C2 A|[d3D3] dcA|~c3 gfd|dcA cAF|~G3 GAc|ded dcA|~c3 A2 c|dcA cAF|GFD C3|GFD GFD|GAc d2 e|dcA cAF|~G3 G2 A||d3 g3|f2 g a2 f|gfd ~c3|dcA GAc|~g3 gfd|~f3 fga|gfd cAF|G3 GAc|d3 g3|f2 g a2 f|gfd ~c3|dcA GFD|GFD GFD|GAc dce|dce dcA|G2 A B{c}BA||


Tune 280	Setting 25510

